docs/src/logo-upload.svg

<?xml version="1.0" standalone="no"?>
<!DOCTYPE svg PUBLIC "-//W3C//DTD SVG 1.1//EN" "http://www.w3.org/Graphics/SVG/1.1/DTD/svg11.dtd"><svg t="1690965131919"
  class="icon" viewBox="0 0 1024 1024" version="1.1" xmlns="http://www.w3.org/2000/svg" p-id="2259"
  xmlns:xlink="http://www.w3.org/1999/xlink" width="200" height="200">
  <path
    d="M317.056 448a32 32 0 0 1 4.352 63.701333L317.056 512H268.202667c-34.304 0-62.293333 25.642667-65.28 58.197333l-0.256 5.802667V768c0 33.28 26.069333 60.8 59.562666 63.744l5.973334 0.256h487.594666c34.304 0 62.293333-25.642667 65.28-58.197333L821.333333 768v-192c0-33.28-26.069333-60.8-59.562666-63.744l-5.973334-0.256h-48.682666a32 32 0 0 1-4.352-63.701333l4.352-0.298667h48.682666c68.864 0 125.354667 53.162667 129.28 120.448l0.256 7.552V768c0 68.266667-54.016 123.904-121.941333 127.786667l-7.594667 0.213333H268.202667c-68.864 0-125.354667-53.162667-129.28-120.448L138.666667 768v-192c0-68.266667 54.016-123.904 121.941333-127.786667l7.594667-0.213333H317.013333z"
    fill="#454ce1" p-id="2260"></path>
  <path d="M480 614.570667v-405.333334a32 32 0 1 1 64 0v405.333334a32 32 0 1 1-64 0z" fill="#454ce1" p-id="2261"></path>
  <path
    d="M534.613333 129.28a32 32 0 0 0-45.226666 0L323.413333 295.253333a32 32 0 0 0 45.269334 45.226667L512 197.162667l143.317333 143.36a32 32 0 0 0 45.226667-45.312L534.613333 129.28z"
    fill="#454ce1" p-id="2262"></path>
</svg>

<svg width="1024" height="1024" xmlns="http://www.w3.org/2000/svg" p-id="2259" version="1.1" class="icon" t="1690965131919">

 <g>
  <title>Layer 1</title>
  <path id="svg_1" p-id="2260" fill="#f7a40c" d="m317.056,448a32,32 0 0 1 4.352,63.70133l-4.352,0.29867l-48.85333,0c-34.304,0 -62.29334,25.64267 -65.28,58.19733l-0.256,5.80267l0,192c0,33.28 26.06933,60.8 59.56266,63.744l5.97334,0.256l487.59466,0c34.304,0 62.29334,-25.64267 65.28,-58.19733l0.256,-5.80267l0,-192c0,-33.28 -26.06933,-60.8 -59.56266,-63.744l-5.97334,-0.256l-48.68266,0a32,32 0 0 1 -4.352,-63.70133l4.352,-0.29867l48.68266,0c68.864,0 125.35467,53.16267 129.28,120.448l0.256,7.552l0,192c0,68.26667 -54.016,123.904 -121.94133,127.78667l-7.59467,0.21333l-487.59466,0c-68.864,0 -125.35467,-53.16267 -129.28,-120.448l-0.256,-7.552l0,-192c0,-68.26667 54.016,-123.904 121.94133,-127.78667l7.59467,-0.21333l48.81066,0l0.04267,0z"/>
  <path id="svg_2" p-id="2261" fill="#f7a40c" d="m480,614.57067l0,-405.33334a32,32 0 1 1 64,0l0,405.33334a32,32 0 1 1 -64,0z"/>
  <path id="svg_3" p-id="2262" fill="#f7a40c" d="m534.61333,129.28a32,32 0 0 0 -45.22666,0l-165.97334,165.97333a32,32 0 0 0 45.26934,45.22667l143.31733,-143.31733l143.31733,143.36a32,32 0 0 0 45.22667,-45.312l-165.93067,-165.93067z"/>
 </g>
</svg>
